X:345
T:Amusements of the Town,The. RH.345
T:Miss Brown’s Hp,aka. RH.345
R:.hornpipe
S:Rev.R.Harrison’s MS,c1815,Cumbria
O:England
A:Temple Sowerby,Cumbria
Z:vmp.Simon Wilson. Review PJH, 2008.
M:2/4
L:1/16
Q:1/4=90
K:D
eg|afaf defd|efed dcBA|Bdce dfeg|fdgf f2e2|!
afaf defd|efed dcBA|Bdce dbag|fedc d2:|!
|:fe|dfad’ d’c’b^a|b2b2 b2 d’c’|bagf gfed|cedf f2e2|!
dfad’ d’c’b^a|b2b2 b2 d’c’|abgf gfed|Adce d4|]

